svgs/sharp-light/barcode-read.svg

<svg xmlns="http://www.w3.org/2000/svg" viewBox="0 0 576 512"><!--! Font Awesome Pro 6.6.0 by @fontawesome - https://fontawesome.com License - https://fontawesome.com/license (Commercial License) Copyright 2024 Fonticons, Inc. --><path d="M0 0L16 0 144 0l16 0 0 32-16 0L32 32l0 112 0 16L0 160l0-16L0 16 0 0zM128 128l32 0 0 256-32 0 0-256zm64 0l32 0 0 256-32 0 0-256zM416 384l0-256 32 0 0 256-32 0zM288 128l0 256-32 0 0-256 32 0zm48 0l32 0 0 256-32 0 0-256zM560 0l16 0 0 16 0 128 0 16-32 0 0-16 0-112L432 32l-16 0 0-32 16 0L560 0zM0 512l0-16L0 368l0-16 32 0 0 16 0 112 112 0 16 0 0 32-16 0L16 512 0 512zm560 0l-128 0-16 0 0-32 16 0 112 0 0-112 0-16 32 0 0 16 0 128 0 16-16 0z"/></svg>

<svg xmlns="http://www.w3.org/2000/svg" viewBox="0 0 576 512"><!--! Font Awesome Pro 6.4.0 by @fontawesome - https://fontawesome.com License - https://fontawesome.com/license (Commercial License) Copyright 2023 Fonticons, Inc. --><path d="M0 0H16 144h16V32H144 32V144v16H0V144 16 0zM128 128h32V384H128V128zm64 0h32V384H192V128zM416 384V128h32V384H416zM288 128V384H256V128h32zm48 0h32V384H336V128zM560 0h16V16 144v16H544V144 32H432 416V0h16H560zM0 512V496 368 352H32v16V480H144h16v32H144 16 0zm560 0H432 416V480h16H544V368 352h32v16V496v16H560z"/></svg>
